X:57
T: Graf und Nonne (Die Nonne)
N: Q01553
O: Osteuropa, UdSSR, Bessarabien
R: Ballade, Standesunterschied, vergebliche Werbung, Liebe, Klage
M: 6/8
L: 1/8
K: G
D | G2GAGA | _B3G2
G | _B2Bc2c | d4z
d | g2d_BAG | d3G2
G | _B2cB2A | G4z

@@@ Tune index: 1767
